images/icons/PBS-passport_logo.svg

<?xml version="1.0" encoding="UTF-8" standalone="no"?>
<svg width="256px" height="256px" viewBox="0 0 256 256" version="1.1" xmlns="http://www.w3.org/2000/svg" xmlns:xlink="http://www.w3.org/1999/xlink">
    <!-- Generator: Sketch 39.1 (31720) - http://www.bohemiancoding.com/sketch -->
    <title>PBS-passport_logo</title>
    <desc>Created with Sketch.</desc>
    <defs></defs>
    <g id="Page-1" stroke="none" stroke-width="1" fill="none" fill-rule="evenodd">
        <g id="PBS-passport_logo">
            <g id="passport-logo" transform="translate(42.000000, 42.000000)">
                <g id="passport-logo-copy-5">
                    <g id="Page-1">
                        <g id="Icons_pg1">
                            <g id="passport-logo-copy-5">
                                <rect id="Rectangle-100" fill="#000000" x="0" y="0" width="171.514355" height="171.745642" rx="15.9874468"></rect>
                                <path d="M85.6487261,134.823117 L74.3032243,97.5836996 L38.0021081,85.9564536 L74.3032243,74.3197282 L85.6487261,37.0897906 L96.9876255,74.3197282 L133.297985,85.9564536 L96.9876255,97.5836996 L85.6487261,134.823117 L85.6487261,134.823117 L85.6487261,134.823117 Z M101.741327,69.4445727 L105.681618,70.7012795 L115.137523,55.7169473 L100.517249,65.4185068 L101.741327,69.4445727 L101.741327,69.4445727 L101.741327,69.4445727 Z M69.5495224,69.4445727 L70.7762416,65.4185068 L56.1638902,55.715593 L65.6277184,70.7012795 L69.5495224,69.4445727 L69.5495224,69.4445727 L69.5495224,69.4445727 Z M101.741327,102.460209 L100.517249,106.493046 L115.137523,116.19596 L105.676336,101.202148 L101.741327,102.460209 L101.741327,102.460209 L101.741327,102.460209 Z M69.5495224,102.460209 L65.6250774,101.202148 L56.1638902,116.19596 L70.7762416,106.498463 L69.5495224,102.460209 L69.5495224,102.460209 L69.5495224,102.460209 Z M141.239309,85.9564536 C141.239309,117.436416 116.345756,142.967334 85.6487261,142.967334 C54.9477348,142.967334 30.0594645,117.436416 30.0594645,85.9564536 C30.0594645,54.4683658 54.9477348,28.9442181 85.6487261,28.9442181 C116.347077,28.9442181 141.239309,54.4683658 141.239309,85.9564536 L141.239309,85.9564536 L141.239309,85.9564536 Z M133.297985,85.9564536 C133.297985,59.0090315 111.926134,37.0897906 85.6487261,37.0897906 C59.37528,37.0897906 38.0021081,59.0090315 38.0021081,85.9564536 C38.0021081,112.902522 59.37528,134.823117 85.6487261,134.823117 C111.926134,134.823117 133.297985,112.902522 133.297985,85.9564536 L133.297985,85.9564536 L133.297985,85.9564536 Z" id="Fill-2" fill="#FFFFFF"></path>
                            </g>
                        </g>
                    </g>
                </g>
            </g>
        </g>
    </g>
</svg>

<svg width="256" height="256" viewBox="0 0 256 256" xmlns="http://www.w3.org/2000/svg"><title>PBS-passport_logo</title><g transform="translate(42 42)" fill="none" fill-rule="evenodd"><rect fill="#000" width="171.514" height="171.746" rx="15.987"/><path d="M85.649 134.823l-11.346-37.24-36.3-11.627 36.3-11.636L85.65 37.09l11.339 37.23 36.31 11.636-36.31 11.628-11.34 37.24zm16.092-65.378l3.94 1.256 9.457-14.984-14.62 9.702 1.223 4.026zm-32.191 0l1.226-4.026-14.612-9.703L65.628 70.7l3.922-1.256zm32.191 33.015l-1.224 4.033 14.62 9.703-9.46-14.994-3.936 1.258zm-32.191 0l-3.925-1.258-9.461 14.994 14.612-9.698-1.226-4.038zm71.69-16.504c0 31.48-24.894 57.011-55.591 57.011-30.701 0-55.59-25.53-55.59-57.01 0-31.489 24.889-57.013 55.59-57.013 30.698 0 55.59 25.524 55.59 57.012zm-7.942 0c0-26.947-21.372-48.866-47.65-48.866-26.273 0-47.646 21.919-47.646 48.866s21.373 48.867 47.647 48.867c26.277 0 47.649-21.92 47.649-48.867z" fill="#FFF"/></g></svg>
